src/status/16/dropboxstatus-idle.svg

<svg version="1.1" viewBox="0 0 16 16" xmlns="http://www.w3.org/2000/svg">
    <defs>
        <style id="current-color-scheme" type="text/css">.ColorScheme-Text { color:#ffffff; } .ColorScheme-Highlight { color:#4285f4; } .ColorScheme-NeutralText { color:#ff9800; } .ColorScheme-PositiveText { color:#4caf50; } .ColorScheme-NegativeText { color:#f44336; }</style>
    </defs>
    <path class="ColorScheme-Text" d="m4.4473 1 0.0019 0.0039-4.44139 2.5039 3.99219 2.4785-4 3.0176 4.4492 2.4961 3.5508-2.4902-4-3.0098 4-2.4922 4 2.5059-1.736 1.3008c0.555-0.207 1.143-0.3134 1.736-0.3145 0.613 0.0017 1.221 0.1162 1.793 0.3379l-1.793-1.3418 3.99-2.4902-4.439-2.5059-3.551 2.4922zm7.5527 7c-2.2091 0-4 1.7909-4 4 0 2.209 1.7909 4 4 4 2.209 0 4-1.791 4-4 0-2.2091-1.791-4-4-4zm2.635 1.6855c0.474 0.4745 0.553 0.8805 0.553 0.8805l-3.526 4.041-1.8925-1.877c-0.189-0.188-0.189-0.531 0-0.72 0.188-0.188 0.5305-0.188 0.7185 0l1.127 1.127zm-7.4221 0.8775-2.7637 1.939-0.8887-0.498v0.371l4.4395 2.625 0.0059-2e-3c-0.6508-0.864-1.0038-1.916-1.0059-2.998 6e-4 -0.487 0.0723-0.971 0.2129-1.437z" fill="currentColor"/>
</svg>

<svg xmlns="http://www.w3.org/2000/svg" width="16" height="16" version="1.1">
 <defs>
  <style id="current-color-scheme" type="text/css">
   .ColorScheme-Text { color:#ffffff; } .ColorScheme-Highlight { color:#4285f4; } .ColorScheme-NeutralText { color:#ff9800; } .ColorScheme-PositiveText { color:#4caf50; } .ColorScheme-NegativeText { color:#f44336; }
  </style>
 </defs>
 <path style="fill:currentColor" class="ColorScheme-Text" d="M 4.4473,1 4.4492,1.0039 0.00781,3.5078 4,5.9863 0,9.0039 4.4492,11.5 8,9.0098 4,6 8,3.5078 12,6.0137 10.264,7.3145 C 10.819,7.1075 11.407,7.0011 12,7 12.613,7.0017 13.221,7.1162 13.793,7.3379 L 12,5.9961 15.99,3.5059 11.551,1 8,3.4922 Z M 12,8 C 9.7909,8 8,9.7909 8,12 8,14.209 9.7909,16 12,16 14.209,16 16,14.209 16,12 16,9.7909 14.209,8 12,8 Z M 14.635,9.6855 C 15.109,10.16 15.188,10.566 15.188,10.566 L 11.662,14.607 9.7695,12.73 C 9.5805,12.542 9.5805,12.199 9.7695,12.01 9.9575,11.822 10.3,11.822 10.488,12.01 L 11.615,13.137 Z M 7.2129,10.563 4.4492,12.502 3.5605,12.004 V 12.375 L 8,15 8.0059,14.998 C 7.3551,14.134 7.0021,13.082 7,12 7.0006,11.513 7.0723,11.029 7.2129,10.563 Z"/>
</svg>
